src/lib/packages/icons/src/assets/line/buildings-alt.svg

<svg width="24" height="24" viewBox="0 0 24 24" fill="none" xmlns="http://www.w3.org/2000/svg">
<path d="M22 20.25H21.75V11C21.75 9.252 20.748 8.25 19 8.25H18.75V6C18.75 3.582 17.418 2.25 15 2.25H9C6.582 2.25 5.25 3.582 5.25 6V8.25H5C3.252 8.25 2.25 9.252 2.25 11V20.25H2C1.586 20.25 1.25 20.586 1.25 21C1.25 21.414 1.586 21.75 2 21.75H22C22.414 21.75 22.75 21.414 22.75 21C22.75 20.586 22.414 20.25 22 20.25ZM6.75 6C6.75 4.423 7.423 3.75 9 3.75H15C16.577 3.75 17.25 4.423 17.25 6V20.25H14.75V18C14.75 16.483 13.517 15.25 12 15.25C10.483 15.25 9.25 16.483 9.25 18V20.25H6.75V6ZM13.25 20.25H10.75V18C10.75 17.311 11.311 16.75 12 16.75C12.689 16.75 13.25 17.311 13.25 18V20.25ZM3.75 11C3.75 10.089 4.089 9.75 5 9.75H5.25V20.25H3.75V11ZM18.75 20.25V9.75H19C19.911 9.75 20.25 10.089 20.25 11V20.25H18.75ZM8.75 7C8.75 6.586 9.086 6.25 9.5 6.25H10.5C10.914 6.25 11.25 6.586 11.25 7C11.25 7.414 10.914 7.75 10.5 7.75H9.5C9.086 7.75 8.75 7.414 8.75 7ZM12.75 7C12.75 6.586 13.086 6.25 13.5 6.25H14.5C14.914 6.25 15.25 6.586 15.25 7C15.25 7.414 14.914 7.75 14.5 7.75H13.5C13.086 7.75 12.75 7.414 12.75 7ZM8.75 10C8.75 9.586 9.086 9.25 9.5 9.25H10.5C10.914 9.25 11.25 9.586 11.25 10C11.25 10.414 10.914 10.75 10.5 10.75H9.5C9.086 10.75 8.75 10.414 8.75 10ZM12.75 10C12.75 9.586 13.086 9.25 13.5 9.25H14.5C14.914 9.25 15.25 9.586 15.25 10C15.25 10.414 14.914 10.75 14.5 10.75H13.5C13.086 10.75 12.75 10.414 12.75 10ZM8.75 13C8.75 12.586 9.086 12.25 9.5 12.25H10.5C10.914 12.25 11.25 12.586 11.25 13C11.25 13.414 10.914 13.75 10.5 13.75H9.5C9.086 13.75 8.75 13.414 8.75 13ZM12.75 13C12.75 12.586 13.086 12.25 13.5 12.25H14.5C14.914 12.25 15.25 12.586 15.25 13C15.25 13.414 14.914 13.75 14.5 13.75H13.5C13.086 13.75 12.75 13.414 12.75 13Z" fill="currentColor"/>
</svg>

<svg xmlns="http://www.w3.org/2000/svg" width="24" height="24" fill="none"><path fill="currentColor" d="M22 20.25h-.25V11c0-1.748-1.002-2.75-2.75-2.75h-.25V6c0-2.418-1.332-3.75-3.75-3.75H9C6.582 2.25 5.25 3.582 5.25 6v2.25H5c-1.748 0-2.75 1.002-2.75 2.75v9.25H2a.75.75 0 0 0 0 1.5h20a.75.75 0 0 0 0-1.5ZM6.75 6c0-1.577.673-2.25 2.25-2.25h6c1.577 0 2.25.673 2.25 2.25v14.25h-2.5V18A2.752 2.752 0 0 0 12 15.25 2.752 2.752 0 0 0 9.25 18v2.25h-2.5V6Zm6.5 14.25h-2.5V18c0-.689.561-1.25 1.25-1.25s1.25.561 1.25 1.25v2.25ZM3.75 11c0-.911.339-1.25 1.25-1.25h.25v10.5h-1.5V11Zm15 9.25V9.75H19c.911 0 1.25.339 1.25 1.25v9.25h-1.5ZM8.75 7a.75.75 0 0 1 .75-.75h1a.75.75 0 0 1 0 1.5h-1A.75.75 0 0 1 8.75 7Zm4 0a.75.75 0 0 1 .75-.75h1a.75.75 0 0 1 0 1.5h-1a.75.75 0 0 1-.75-.75Zm-4 3a.75.75 0 0 1 .75-.75h1a.75.75 0 0 1 0 1.5h-1a.75.75 0 0 1-.75-.75Zm4 0a.75.75 0 0 1 .75-.75h1a.75.75 0 0 1 0 1.5h-1a.75.75 0 0 1-.75-.75Zm-4 3a.75.75 0 0 1 .75-.75h1a.75.75 0 0 1 0 1.5h-1a.75.75 0 0 1-.75-.75Zm4 0a.75.75 0 0 1 .75-.75h1a.75.75 0 0 1 0 1.5h-1a.75.75 0 0 1-.75-.75Z"/></svg>
